!!!OTL: Von den zehn Geboten. / (Geistl. Lied des 15. Jahrh.) / b. Andere Lesart.
!!!ARE: Europa, Mitteleuropa, Deutschland
!!!SCT: A0621B
!!!TXL: @@GMH
!!!YEM: Copyright 1995, estate of Helmut Schaffrath.
**kern	**text
*M4/1	*
*met(c|)	*
*clefC4	*
*k[b-]	*
*F:	*
=1	=1
{1c	Süſ-
1c	-ſer
1d	Vat-
1c	-ter
=2	=2
1A	Her-
1d	-re
1c	Gott,
2r}	.
{2A	ver-
=3	=3
1G	-leyh
1A	daß
(2B-	wir
2c)	.
1d	er-
=4	=4
0c	-ken-
1G	-nen
1B-	die
=5	=5
1A	ʒe-
2G	-hen
2G	Ge-
1F	-bot,
2r}	.
{2F	daß
=6	=6
1G	wir
2G	ſie
2G	mit
2.c	wor-
4d	-ten
2c	vnd
2B-	mit
=7	=7
1A	wer-
1G	-ken
1F	all-
1G	-ʒeit
=8	=8
(2E	lai-
2C	.
1D)	.
1C	-ſten,
2r}	.
{2C	auß
=9	=9
1F	rech-
(2A/	-ter
2G)	.
(2F	lieb,
2G)	.
(2A	auß
2B-)	.
=10	=10
1c	gan-
2d	-tʒer
2d	be-
1c	-gier,
2r}	.
{2A	ſo
=11	=11
2B-	wer-
2A	-den
1G	wir
2A	ſe-
2A	-lig
1G	vnd
=12	=12
00F/ll}	reich.
==	==
!!!GTL: Geistliche Volkslieder
!!!AGN: Romanze, Ballade, Lied, religioeses Lied
!! Muenchner Gsgb 1586
!!!ONB: ESAC (Essen Associative Code) Database: ALTDEU
!!!AMT: simple quadruple
!!!AIN: vox
!!!EED: Helmut Schaffrath
!!!EEV: 1.0
!!!RDF**kern: l = terminal long
!!!URL-scan: https://rosdok.uni-rostock.de/mcrviewer/recordIdentifier/rosdok_ppn738218359/iview2/phys_0803.iview2?x=112.2280193537249&y=696.6332149729133&scale=0.7106933083589261&rotation=0&layout=singlePageLayout&logicalDiv=log_0007
!!!ENC: Anna Maria Matuszewska
!!!EEV: 2024/25/03
*-	*-
